X:1
T:Marchioness of Blandford's Reel
M:C|
L:1/8
B:Campbell - 10th Book of New and Favorite Country Dances (1795; p. 7)
Z:AK/Fiddler's Companion
K:C
g|ec Tc2 {ABc}GcEc|D(_BB)F D(B,B,)g|ec Tc2 {ABc} GcEc|D(cc)G ECC:|
F|ECGE cGEC|D(_BB)F DB,B,F|.E.C.G.E .c.G.E.C|D(cc)G E(CC)F|
ECGE cGEC|D_BAB FBDB,|CDEF GABc|defg ecc||
|:g|ecGc EcGc|D_BFB DB,B,g|ecGc EcGc|AcGc ECC:|
a|gecg ecGE|D(_BB)F D(B,B,)a|gecg ecGE|DccG ECCa|
gecg afdf|ecgc Bcdf|ecGc EcGc|defg ecc||

